icons/lines/direct-notification.svg

<svg xmlns="http://www.w3.org/2000/svg" width="24" height="24" viewBox="0 0 24 24" fill="none" stroke="currentColor" stroke-width="2" stroke-linecap="round" stroke-linejoin="round" >
  <path d="M1.97998 13H5.76998C6.52998 13 7.21998 13.43 7.55998 14.11L8.44998 15.9C8.99998 17 9.99998 17 10.24 17H13.77C14.53 17 15.22 16.57 15.56 15.89L16.45 14.1C16.79 13.42 17.48 12.99 18.24 12.99H21.98"/>
  <path d="M19 8C20.6569 8 22 6.65685 22 5C22 3.34315 20.6569 2 19 2C17.3431 2 16 3.34315 16 5C16 6.65685 17.3431 8 19 8Z"/>
  <path d="M14 2H9C4 2 2 4 2 9V15C2 20 4 22 9 22H15C20 22 22 20 22 15V10"/>
  </svg>

<svg xmlns="http://www.w3.org/2000/svg" width="24" height="24" viewBox="0 0 24 24" fill="none" stroke="currentColor" stroke-width="2" stroke-linecap="round" stroke-linejoin="round">
  <path d="M1.98 13h3.79a2 2 0 0 1 1.79 1.11l.89 1.79a1.9 1.9 0 0 0 1.79 1.1h3.53a2 2 0 0 0 1.79-1.11l.89-1.79a2 2 0 0 1 1.79-1.11h3.74" />
  <path d="M14 2H9C4 2 2 4 2 9v6c0 5 2 7 7 7h6c5 0 7-2 7-7v-5" />
  <circle cx="19" cy="5" r="3" />
</svg>
